svg/white/adx.svg

<svg xmlns="http://www.w3.org/2000/svg" width="32" height="32" viewBox="0 0 32 32">
  <path fill="#FFF" fill-rule="evenodd" d="M16,32 C7.163444,32 0,24.836556 0,16 C0,7.163444 7.163444,0 16,0 C24.836556,0 32,7.163444 32,16 C32,24.836556 24.836556,32 16,32 Z M11.5873343,8.60215563 L9,11.358749 L13.3593149,15.973467 L9,20.6792453 L11.5873343,23.3962264 L16,18.7924528 L20.3051142,23.3962264 L23,20.6028975 L18.6043773,15.999191 L23,11.358749 L20.3051142,8.60215563 L16,13.2075472 L11.5873343,8.60215563 Z M11.9417304,8.22641509 L14.0681071,10.490566 L15.9818461,8.37735849 L17.8955851,10.490566 L20.0219618,8.22641509 L15.9818461,4 L11.9417304,8.22641509 Z M11.9417304,23.7735849 L15.9818461,28 L20.0219618,23.7735849 L17.8955851,21.509434 L15.9818461,23.6226415 L14.0681071,21.509434 L11.9417304,23.7735849 Z"/>
</svg>

<svg xmlns="http://www.w3.org/2000/svg" width="32" height="32"><path fill="#FFF" fill-rule="evenodd" d="M16 32C7.163 32 0 24.837 0 16S7.163 0 16 0s16 7.163 16 16-7.163 16-16 16zM11.587 8.602L9 11.36l4.36 4.614L9 20.68l2.587 2.717L16 18.792l4.305 4.604L23 20.603l-4.396-4.604L23 11.36l-2.695-2.757L16 13.208l-4.413-4.606zm.355-.376l2.126 2.265 1.914-2.114 1.914 2.114 2.126-2.265L15.982 4l-4.04 4.226zm0 15.548L15.982 28l4.04-4.226-2.126-2.265-1.914 2.114-1.914-2.114-2.126 2.265z"/></svg>
